theme/icons/data.svg

<svg fill="none" height="24" width="24" xmlns="http://www.w3.org/2000/svg"><g fill="#f4f4f7"><path clip-rule="evenodd" d="m12 8.89a3 3 0 0 1 1 5.829v5.17h-2v-5.17a3.001 3.001 0 0 1 1-5.83zm0 2a1 1 0 1 1 0 2 1 1 0 0 1 0-2z" fill-rule="evenodd"/><path d="m7.05 6.94a6.978 6.978 0 0 0 -2.05 4.95c0 2.177.994 4.122 2.554 5.406l1.423-1.424a4.992 4.992 0 0 1 -1.977-3.982c0-1.38.56-2.63 1.464-3.535zm8.486 1.413a4.985 4.985 0 0 1 1.464 3.537c0 1.626-.776 3.07-1.977 3.983l1.423 1.424a6.986 6.986 0 0 0 2.554-5.408 6.978 6.978 0 0 0 -2.05-4.95z"/><path d="m1 11.89a10.97 10.97 0 0 1 3.222-7.78l1.414 1.415a8.972 8.972 0 0 0 -2.636 6.365 8.972 8.972 0 0 0 2.636 6.364l-1.414 1.414a10.966 10.966 0 0 1 -3.222-7.778zm18.778 7.777a10.965 10.965 0 0 0 3.222-7.777c0-3.038-1.231-5.788-3.222-7.778l-1.414 1.414a8.972 8.972 0 0 1 2.636 6.364 8.972 8.972 0 0 1 -2.636 6.364z"/></g></svg>

<svg fill="none" height="24" width="24" xmlns="http://www.w3.org/2000/svg">
    <g fill="#f4f4f7">
        <path clip-rule="evenodd" d="M12 8.89a3 3 0 0 1 1 5.829v5.17h-2v-5.17a3.001 3.001 0 0 1 1-5.83zm0 2a1 1 0 1 1 0 2 1 1 0 0 1 0-2z" fill-rule="evenodd"/>
        <path d="M7.05 6.94A6.978 6.978 0 0 0 5 11.89c0 2.177.994 4.122 2.554 5.406l1.423-1.424A4.992 4.992 0 0 1 7 11.89c0-1.38.56-2.63 1.464-3.535zm8.486 1.413A4.985 4.985 0 0 1 17 11.89c0 1.626-.776 3.07-1.977 3.983l1.423 1.424A6.986 6.986 0 0 0 19 11.889a6.978 6.978 0 0 0-2.05-4.95z"/>
        <path d="M1 11.89a10.97 10.97 0 0 1 3.222-7.78l1.414 1.415A8.972 8.972 0 0 0 3 11.89a8.972 8.972 0 0 0 2.636 6.364l-1.414 1.414A10.966 10.966 0 0 1 1 11.89zm18.778 7.777A10.965 10.965 0 0 0 23 11.89c0-3.038-1.231-5.788-3.222-7.778l-1.414 1.414A8.972 8.972 0 0 1 21 11.89a8.972 8.972 0 0 1-2.636 6.364z"/>
    </g>
</svg>
